X: 20017
T: Jimmy Dolan's
R: strathspey
M: 4/4
K: Dmajor
|:F>G|A2 A>G (3ABA A>G|F>D (3DDD A>DD>F|(3AAA A>G A>Ad>e|(3fed e>c d2-:|
d>e|f>df>a g>ee>g|f>de>d c>AA>[Gg]|~f2-f>a g2 (3efg|f>de>c d2- d>e|
(3fed f>a g>ee>g|f>de>d c>AA>g|~f2-f>a g2 (3efg|a>ge>c d>D||

